X: 20295
T: John Blessing's
R: reel
M: 4/4
K: Dmajor
A3F GFED|FAA2 dBAG|FAAF GBdB|AFDF E2D2:|
afdf gfef|afdf eBB2|1 afdf gfef|abaf e2df:|2 defg afbf|afdf e2dB||

